!!!LAR: Susato, Tielman
!!!OPR: Het Derde Mussyck Boexken, Vol 3
!!!OTL: Reihent&auml;nze Branlen
!!!OMV: 2. Fagott
!!!PPR: Tielman Susato
!!!PPP@EN: Belgium; Antwerp
!!!PDT: 1551
**kern	**kern	**kern	**kern
*Ifltdb	*Ifltdt	*Ifltda	*Ifltds
*>[A,A,B,B]	*>[A,A,B,B]	*>[A,A,B,B]	*>[A,A,B,B]
*>norep[A,B]	*>norep[A,B]	*>norep[A,B]	*>norep[A,B]
*>A	*>A	*>A	*>A
=1-	=1-	=1-	=1-
*clefF4	*clefG2	*clefG2	*clefG2
*k[]	*k[]	*k[]	*k[]
*M6/4	*M6/4	*M6/4	*M6/4
*MM230	*MM230	*MM230	*MM230
4C/	4e/	4g/	4cc\
=2	=2	=2	=2
2C/	2e/	2cc\	2gg\
4C/	4e/	4cc\	4gg\
2C/	2e/	2cc\	2gg\
4C/	4e/	4cc\	4gg\
=3	=3	=3	=3
2.FF/	2f/	2a/	2.aa\
.	4f/	4a/	.
2FF/	4f/	4a/	2aa\
.	4a/	4f/	.
4GG/	4g/	4d/	4b\
=4	=4	=4	=4
4.AA/	4.e/	4.a/	4.cc\
8BB/	8d/	8g/	8dd\
4AA/	4e/	4a/	4cc\
4.AA/	4.e/	4.a/	4.cc\
8BB/	8d/	8g/	8dd\
4AA/	8e/L	4a/	4cc\
.	8f/J	.	.
=5	=5	=5	=5
2GG/	2g/	2d/	2.b\
4GG/	4g/	4e/	.
2FF/	2c/	2f/	2a/
4FF/	4f/	4a/	4aa\
=6	=6	=6	=6
2C/	2g/	2cc\	2gg\
4C/	4a/	4cc\	4ee\
2D\	2f/	2a/	2ff\
4GG/	4g/	4b\	4dd\
=7	=7	=7	=7
2.C/	2.e/	2.g/	2.ee\
2C/	2e/	2g/	2ee\
=8:|!|:	=8:|!|:	=8:|!|:	=8:|!|:
*>B	*>B	*>B	*>B
4FF/	4f/	4a/	4aa\
=9	=9	=9	=9
2C/	2e/	2cc\	2gg\
4C/	4e/	4cc\	4gg\
2C/	2e/	2cc\	2gg\
4D\	4f/	4a/	4ff\
=10	=10	=10	=10
2C/	4.g/	2cc\	4.ee\
.	8f/	.	8dd\
4C/	4e/	4g/	4cc\
4.GG/	4.d/	4.g/	4.b\
8AA/	8c/	8f/	8a/
4GG/	4d/	4g/	4b\
=11	=11	=11	=11
2C/	2c/	2e/	2cc\
4C/	4c/	4e/	4cc\
2C/	2c/	2e/	2cc\
==:|!	==:|!	==:|!	==:|!
*-	*-	*-	*-
!!!ENC: Craig Stuart Sapp
!!!ENC: 2004/03/18/
